build/flags/Myanmar.svg

<svg xmlns="http://www.w3.org/2000/svg" fill="none" viewBox="0 0 28 28" focusable="false"><defs><filter id="Myanmar_svg__a"><feColorMatrix values="0 0 0 0 1 0 0 0 0 1 0 0 0 0 1 0 0 0 1 0"/></filter></defs><mask id="Myanmar_svg__b" width="28" height="20" x="0" y="4" maskUnits="userSpaceOnUse"><g filter="url(#Myanmar_svg__a)"><rect width="28" height="20" y="4" fill="#FFF" rx="3"/><rect width="28" height="20" y="4" stroke="#969696" stroke-opacity="0" stroke-width="0" rx="3"/></g></mask><path fill="none" d="M0 0H28V28H0z"/><rect width="28" height="20" y="4" fill="#FFF" rx="3"/><rect width="28" height="20" y="4" rx="3"/><g mask="url(#Myanmar_svg__b)"><path fill="#F13D4F" fill-rule="evenodd" d="M0 24L28 24L28 17.3333L0 17.3333L0 24Z"/><path d="M28 24L28 17.3333L0 17.3333L0 24L28 24Z"/><path fill="#4AC94B" fill-rule="evenodd" d="M0 17.3334L28 17.3334L28 10.6667L0 10.6667L0 17.3334Z"/><path d="M28 17.3334L28 10.6667L0 10.6667L0 17.3334L28 17.3334Z"/><path fill="#FFD043" fill-rule="evenodd" d="M0 10.6667L28 10.6667L28 4L0 4L0 10.6667Z"/><path d="M28 10.6667L28 4L0 4L0 10.6667L28 10.6667Z"/><path fill="#FFF" fill-rule="evenodd" d="M14 16.34L10.4733 18.8541L11.7745 14.7231L8.29366 12.1459L12.6246 12.1069L14 8L15.3754 12.1069L19.7063 12.1459L16.2255 14.7231L17.5267 18.8541L14 16.34Z"/><path d="M10.4733 18.8541L11.7745 14.7231L8.29366 12.1459L12.6246 12.1069L14 8L15.3754 12.1069L19.7063 12.1459L16.2255 14.7231L17.5267 18.8541L14 16.34L10.4733 18.8541Z"/></g></svg>

<svg xmlns="http://www.w3.org/2000/svg" fill="none" viewBox="0 0 28 28" focusable="false"><path fill="none" d="M0 0h28v28H0z"/><rect width="28" height="20" y="4" fill="#FFF" rx="3"/><rect width="28" height="20" y="4" rx="3"/><mask id="Myanmar_svg__a" width="28" height="20" x="0" y="4" mask-type="alpha" maskUnits="userSpaceOnUse"><rect width="28" height="20" y="4" fill="#FFF" rx="3"/><rect width="28" height="20" y="4" stroke="#979797" stroke-opacity="0" stroke-width="0" rx="3"/></mask><g mask="url(#Myanmar_svg__a)"><path fill="#F13D4F" fill-rule="evenodd" d="M0 24h28v-6.67H0z"/><path d="M28 24v-6.67H0V24z"/></g><g mask="url(#Myanmar_svg__a)"><path fill="#4AC94B" fill-rule="evenodd" d="M0 17.33h28v-6.67H0z"/><path d="M28 17.33v-6.67H0v6.67z"/></g><g mask="url(#Myanmar_svg__a)"><path fill="#FFD043" fill-rule="evenodd" d="M0 10.66h28V4H0z"/><path d="M28 10.66V4H0v6.66z"/></g><g mask="url(#Myanmar_svg__a)"><path fill="#FFF" fill-rule="evenodd" d="m14 16.34-3.53 2.51 1.3-4.13-3.48-2.58 4.33-.04L14 8l1.37 4.1 4.33.04-3.48 2.58 1.3 4.13z"/><path d="m10.47 18.85 1.3-4.13-3.48-2.58 4.33-.04L14 8l1.37 4.1 4.33.04-3.48 2.58 1.3 4.13L14 16.34z"/></g></svg>
